resources/svg/lan-cable-o.svg

<svg xmlns="http://www.w3.org/2000/svg" viewBox="0 0 15 15" fill="none"><path d="M6.5 11.5V15m2-3.5V15M6 9.5h3M6.5.5v2h2v-2m-4 0h6v4h1v3l-2 4h-4l-2-4v-3h1v-4zm2 4v2a1 1 0 002 0v-2h-2z" stroke="currentColor"/></svg>

<svg xmlns="http://www.w3.org/2000/svg" viewBox="0 0 15 15" fill="none"><path d="M6.5 11.5V15M8.5 11.5V15M6 9.5H9M6.5 0.5V2.5H8.5V0.5M4.5 0.5H10.5V4.5H11.5V7.5L9.5 11.5H5.5L3.5 7.5V4.5H4.5V0.5ZM6.5 4.5V6.5C6.5 7.05228 6.94772 7.5 7.5 7.5C8.05228 7.5 8.5 7.05228 8.5 6.5V4.5H6.5Z" stroke="black"/></svg>
